icons/AdobeAfterEffectsColor.svg

<svg width="16" height="16" viewBox="0 0 16 16" fill="none" xmlns="http://www.w3.org/2000/svg">
<g clip-path="url(#clip0_2180_4611)">
<path d="M13.1667 0.200012H2.83333C1.26853 0.200012 0 1.46854 0 3.03335V12.9667C0 14.5315 1.26853 15.8 2.83333 15.8H13.1667C14.7315 15.8 16 14.5315 16 12.9667V3.03335C16 1.46854 14.7315 0.200012 13.1667 0.200012Z" fill="#00005B"/>
<path d="M6.42764 9.53334H3.94822L3.44376 11.1034C3.43689 11.132 3.42027 11.1573 3.39676 11.1749C3.37324 11.1925 3.34431 11.2014 3.31495 11.2H2.05916C1.98754 11.2 1.9625 11.1606 1.98402 11.0819L4.1307 4.92508C4.15216 4.8607 4.17364 4.79775 4.19509 4.71539C4.2232 4.57219 4.23758 4.42663 4.23803 4.2807C4.23657 4.2705 4.23751 4.26009 4.24078 4.25031C4.24404 4.24054 4.24953 4.23165 4.25682 4.22436C4.26411 4.21707 4.27299 4.21158 4.28277 4.20831C4.29255 4.20505 4.30295 4.20411 4.31316 4.20556H6.01977C6.06974 4.20556 6.09836 4.22345 6.10564 4.25924L8.5421 11.0927C8.56355 11.1643 8.54209 11.2001 8.47771 11.2H7.08237C7.0584 11.2027 7.03429 11.1965 7.01454 11.1827C6.99479 11.1688 6.98074 11.1483 6.97504 11.1249L6.42764 9.53334ZM4.33464 8.20949H6.03051C5.98757 8.06644 5.93748 7.90544 5.88022 7.72648C5.82286 7.54771 5.76204 7.3563 5.69776 7.15225C5.63338 6.94833 5.56898 6.74439 5.50456 6.54045C5.44018 6.33653 5.38114 6.13975 5.32745 5.95011C5.2738 5.76061 5.22551 5.58709 5.18256 5.42956H5.17182C5.11142 5.71944 5.03619 6.00604 4.94643 6.28822C4.84613 6.61022 4.74417 6.93938 4.64053 7.27568C4.53673 7.61211 4.43476 7.92338 4.33464 8.20949Z" fill="#9999FF"/>
<path d="M12.4921 8.92225H10.3777C10.4036 9.13146 10.4731 9.33292 10.5816 9.51362C10.7017 9.69255 10.8714 9.83246 11.07 9.91611C11.3391 10.0326 11.6301 10.0896 11.9233 10.0834C12.1559 10.0789 12.3876 10.0535 12.6156 10.0074C12.8195 9.97982 13.0194 9.92772 13.2108 9.85219C13.2465 9.82369 13.2645 9.84146 13.2645 9.90587V10.9255C13.2662 10.9533 13.2607 10.9811 13.2484 11.006C13.2361 11.0255 13.2196 11.042 13.2 11.0543C12.9877 11.1484 12.7643 11.2149 12.5351 11.2524C12.2237 11.3109 11.9073 11.3379 11.5905 11.3329C11.0824 11.3329 10.6566 11.2542 10.3133 11.0968C9.98868 10.9538 9.702 10.7369 9.47609 10.4635C9.26506 10.2059 9.10808 9.90837 9.01453 9.58875C8.9219 9.27328 8.87492 8.94617 8.87501 8.61738C8.87402 8.25837 8.93018 7.9015 9.04139 7.56015C9.14847 7.22718 9.31784 6.91758 9.54048 6.64781C9.76007 6.3812 10.0347 6.16518 10.3455 6.01455C10.6603 5.86075 11.0324 5.80558 11.4617 5.80558C11.8178 5.79658 12.1714 5.86621 12.4975 6.00951C12.7717 6.12644 13.0131 6.30874 13.2005 6.54047C13.3764 6.76739 13.5108 7.02355 13.5977 7.29718C13.6822 7.56087 13.7257 7.836 13.7265 8.11292C13.7265 8.27039 13.7211 8.4135 13.7104 8.54225C13.6997 8.67104 13.6907 8.76406 13.6835 8.82132C13.6808 8.84498 13.6694 8.8668 13.6516 8.88262C13.6338 8.89845 13.6108 8.90719 13.5869 8.90719C13.544 8.90719 13.4707 8.91255 13.3669 8.92328C13.2631 8.93401 13.1343 8.94117 12.9805 8.94475C12.8265 8.94843 12.6639 8.92225 12.4921 8.92225ZM10.3777 7.94447H11.7837C11.9555 7.94447 12.0825 7.94268 12.1648 7.9391C12.2198 7.9336 12.273 7.91598 12.3204 7.88751V7.82311C12.3183 7.73916 12.3038 7.65599 12.2775 7.57625C12.2196 7.39313 12.1031 7.23409 11.9461 7.12357C11.789 7.01304 11.6 6.95714 11.4081 6.96445C11.2275 6.95353 11.0476 6.99541 10.8903 7.08499C10.7331 7.17456 10.6053 7.30796 10.5226 7.46891C10.4491 7.61862 10.4001 7.7792 10.3777 7.94447Z" fill="#9999FF"/>
</g>
<defs>
<clipPath id="clip0_2180_4611">
<rect width="16" height="16" fill="white"/>
</clipPath>
</defs>
</svg>

<svg width="16" height="16" fill="none" xmlns="http://www.w3.org/2000/svg"><g clip-path="url(#a)"><path d="M13.167.2H2.833A2.833 2.833 0 0 0 0 3.033v9.934A2.833 2.833 0 0 0 2.833 15.8h10.334A2.833 2.833 0 0 0 16 12.967V3.033A2.833 2.833 0 0 0 13.167.2z" fill="#00005B"/><path d="M6.428 9.533h-2.48l-.504 1.57a.126.126 0 0 1-.129.097H2.059c-.071 0-.097-.04-.075-.118l2.147-6.157c.021-.064.043-.127.064-.21.028-.143.043-.288.043-.434a.066.066 0 0 1 .075-.075H6.02c.05 0 .078.017.086.053l2.436 6.834c.022.071 0 .107-.064.107H7.082a.1.1 0 0 1-.107-.075l-.547-1.592zM4.335 8.21H6.03a28.298 28.298 0 0 0-.15-.483 113.996 113.996 0 0 1-.376-1.186 20.63 20.63 0 0 1-.178-.59l-.144-.52h-.011a8.66 8.66 0 0 1-.226.858l-.305.988c-.104.336-.206.647-.306.933zM12.492 8.922h-2.114c.026.21.095.41.204.592.12.179.29.318.488.402.27.117.56.174.853.167.233-.004.465-.03.693-.076.204-.027.403-.08.595-.155.035-.028.053-.01.053.054v1.02a.16.16 0 0 1-.016.08.155.155 0 0 1-.048.048 2.73 2.73 0 0 1-.665.198 4.713 4.713 0 0 1-.944.08c-.509 0-.934-.078-1.278-.235a2.277 2.277 0 0 1-.837-.633 2.48 2.48 0 0 1-.461-.875A3.445 3.445 0 0 1 9.04 7.56c.107-.333.277-.642.5-.912.22-.267.494-.483.804-.633.315-.154.687-.21 1.117-.21.356-.008.71.061 1.036.205.274.116.515.299.703.53.175.227.31.484.397.757.084.264.128.539.128.816 0 .157-.005.3-.016.43a7.47 7.47 0 0 1-.027.278.097.097 0 0 1-.096.086 2.48 2.48 0 0 0-.22.016c-.104.011-.233.018-.387.022-.154.003-.316-.023-.488-.023zm-2.114-.978h1.406c.171 0 .298-.001.38-.005a.375.375 0 0 0 .156-.051v-.065a.877.877 0 0 0-.912-.859.933.933 0 0 0-.885.505c-.074.15-.123.31-.145.475z" fill="#99F"/></g><defs><clipPath id="a"><path fill="#fff" d="M0 0h16v16H0z"/></clipPath></defs></svg>
